!!!!SEGMENT: pl-wnifc--6670-n--001-007_gall-jan-karol--piesni-polskie-na-chor-meski-z-i-7-ludu-moj-ludu.krn
!!!cenid: 19xx:175
!!!COM: Gall, Jan Karol
!!!COM-rismID: pe50042628
!!!CDT: 1856-1912
!!!CNT: Polish
!!!GTL: Pieśni polskie na chór męski (z. I)
!!!OTL: 7. Ludu mój ludu
!!!OMV: 007
!!!PDT:
!!!AGN:
!!!YEC: Copyright 2022 Narodowy Instytut Fryderyka Chopina (https://polishscores.org)
!!!YEM: License CC-BY-4.0 (https://creativecommons.org/licenses/by/4.0)
!!!SMS-siglum: PL-Wnifc
!!!SMS-shelfmark: 6670/n
!!!SMS-variant:
!!!SMS-altvar:
!!!SMS-shelfwork: 001-007 G
!!!NIFC-rismSourceID: 1001152877
!!!NIFC-rismChildID: 1001152890
!!!NIFC-islandoraID: nifc:213182
!!!URL-pdf-islandora: https://repozytorium.nifc.pl/islandora/object/nifc:213182/datastream/PDF/view
!!!URL-scan: https://polish.musicsources.pl/pl/lokalizacje/galeria/druki-muzyczne/16895/5 @EN{Scan on Polish Music Sources Website} @PL{Skany w portalu Dziedzictwo Muzyki Polskiej w otwartym dostępie}
!!!IIIF:
!!!ONB-nifc:
!!!AIN: 1 bass 1 tenor
!!!key: d
**kern	**dynam	**kern	**text	**text	**dynam
*part2	*part2	*part1	*part1	*part1	*part1
*staff2	*	*staff1	*staff1	*staff1	*
*ICvox	*	*ICvox	*	*	*
*Ibass	*	*Itenor	*	*	*
*I"Basy.	*	*I"Tenory.	*	*	*
*I'B	*	*I'T	*	*	*
*clefF4	*	*clefG2	*	*	*
*k[b-]	*	*k[b-]	*	*	*
*d:	*	*d:	*	*	*
*M4/4	*	*M4/4	*	*	*
*met(c)	*	*met(c)	*	*	*
=1	=1	=1	=1	=1	=1
!!!OMD: Non troppo largo.
*^	*	*^	*	*	*
*	*	*	*	*	*v:1	*	*
!	!	!	!	!	!	!	!LO:DY:a
!	!	!	!	!	!	!	!LO:DY:a
2F/	2D\	p <	2dd/	2a\	Lu-	.	p <
4F/	4D\	.	4dd/	4a\	-du,	.	.
4A/	4D\	[	4ff/	4dd\	mój	.	[
=2	=2	=2	=2	=2	=2	=2	=2
!	!	!	!	!	!	!	!LO:DY:a
(4A/	2AA\	>	(4ee/	(4cc#X\	lu-	.	>
4E/)	.	.	4cc#X/)	4a\)	.	.	.
2C#X/	2AA\	]	2a/	2a\	-du	.	]
=3	=3	=3	=3	=3	=3	=3	=3
!	!	!	!	!	!	!	!LO:DY:a
4.D/	(4FF\	<	4.dd/	(4a\	có-	.	<
.	8GG\)	.	.	8b-\)	.	.	.
8D/	8GG\	.	8ee/	8b-\	-żem	.	.
4D/	4D\	[	4ff/	4a\	ci	.	[
4D/	4DD\	.	4dd/	4a\	u-	.	.
=4	=4	=4	=4	=4	=4	=4	=4
!	!	!	!	!	!	!	!LO:DY:a
2D/	2AA\	>	2ee/	2a\	-czy-	.	>
2C#X/	2AA\	]	2ee/	(4a\	-nił	.	]
.	.	.	.	4g\)	.	.	.
!!LO:LB:g=original
=5	=5	=5	=5	=5	=5	=5	=5
2D/	2BB-\	.	2dd/	2f\	Cze-	.	.
!	!	!	!	!	!	!	!LO:DY:a
4D/	4GG\	<	4dd/	4b-\	-mem	.	<
4D/	4GG#X\	.	4ff/	8b-\L	za-	.	.
.	.	[	.	8bn\J	.	.	[
=6	=6	=6	=6	=6	=6	=6	=6
(4C#X/	2AA\	.	(4ee/	(4cc#X\	-smu-	.	.
4E/)	.	.	4cc#X/)	4a\)	.	.	.
2C#/	(4AA\	.	2a/	2a\	-cił	.	.
.	4GG\)	.	.	.	.	.	.
=7	=7	=7	=7	=7	=7	=7	=7
!	!	!	!	!	!	!	!LO:DY:a
(4D/	(4FF\	<	4.dd/	(4a\	al-	.	<
8D/)	8GG\)	.	.	8b-\)	.	.	.
8D/	8GG\	[	8ee/	8b-\	-bo	.	[
4D/	4DD\	.	4ff/	4a\	czem	.	.
4D/	4FF\	.	4dd/	4a\	za-	.	.
=8	=8	=8	=8	=8	=8	=8	=8
!	!	!	!	!	!	!	!LO:DY:a
2D/	2AA\	>	2ee/	2a\	-wi-	.	>
2C#X/	2AA\	]	2ee/	2a\	-nił?	.	]
!!LO:LB:g=original
=9	=9	=9	=9	=9	=9	=9	=9
*	*	*	*	*	*v:1	*v:2	*
!	!	!	!	!	!	!	!LO:DY:a
2D/	2GG\	<	2ee/	2b-\	Jam	Jam	<
4B-/	4G\	[	4ee/	4dd\	cię	cię	[
4B-/	4E\	.	4gg/	4dd\	wy-	w pro-	.
=10	=10	=10	=10	=10	=10	=10	=10
!	!	!	!	!	!	!	!LO:DY:a
(4A/	(4F\	f	(4ff/	2dd\	-zwo-	-wa-	f
4B-/)	4G\)	.	4ee/)	.	.	.	.
2A/	2A\	.	2ee/	2cc#X\	-lił	-dził	.
=11	=11	=11	=11	=11	=11	=11	=11
(4A/	(4F\	.	4.dd/	4.dd\	z mo-	w mio-	.
8B-/)	8G\)	.	.	.	.	.	.
8B-/	8G\	.	8ee/	8dd\	-cy	-dem	.
4A/	4D\	.	4ff/	4dd\	Fa-	kraj	.
4A/	4F\	.	4dd/	4dd\	-ra-	pły-	.
=12	=12	=12	=12	=12	=12	=12	=12
2A/	2A\	.	2ee/	2dd\	-o-	-ną-	.
!	!	!	!	!	!	!	!LO:DY:a
(4A/	2AA\	>	2ee/	2cc#X\	-na	-cy	>
4G/)	.	]	.	.	.	.	]
!!LO:LB:g=original
=13	=13	=13	=13	=13	=13	=13	=13
!	!	!	!	!	!	!	!LO:DY:a
(4F/	2BB-\	p	2dd/	2dd\	A	Tyś	p
4D/)	.	.	.	.	.	.	.
4D/	4GG\	.	4dd/	4b-\	tyś	mi	.
4D/	4GG#X\	.	4ff/	8b-\L	przy-	zgo-	.
.	.	.	.	8bn\J	.	.	.
=14	=14	=14	=14	=14	=14	=14	=14
(4C#X/	2AA\	.	(4ee/	(4cc#X\	-rzą-	-to-	.
4E/)	.	.	4cc#/)	4a\)	.	.	.
2C#/	(4AA\	.	2a/	2a\	-dził	-wał	.
.	4GG\)	.	.	.	.	.	.
=15	=15	=15	=15	=15	=15	=15	=15
!	!	!	!	!	!	!	!LO:DY:a
(4D/	(4FF\	>	4.dd/	(4a\	Krzyż	śmier-	>
8D/)	8GG\)	.	.	8b-\)	.	.	.
8D/	8GG\	]	8ee/	8b-\	na	-ci	]
4D/	4AA\	.	4ff/	4a\	me	znak	.
8E/L	4AA\	.	4cc#X/	4a\	ra-	hań-	.
8G/J	.	.	.	.	.	.	.
=16	=16	=16	=16	=16	=16	=16	=16
!	!	!	!	!	!	!	!LO:DY:a
(4G/	2D\	>	2dd/	2a\	-mio-	-bią-	>
8F/L	.	.	.	.	.	.	.
8E/J)	.	.	.	.	.	.	.
2F/	2D\	]	2dd/	2a\	-na.	-cy!	]
*v	*v	*	*	*	*	*	*
*	*	*v	*v	*	*	*
==	==	==	==	==	==
*-	*-	*-	*-	*-	*-
!!!system-decoration: [(s1,s2)]
!!!ENC: Andrzej Gręziak
!!!END: 2024-05-02
!!!EED: Andrzej Borzym
!!!EEV: 2025-03-06
